wall-sconce-flat-variant.svg

<svg fill="currentColor" viewBox="0 0 24 24"><path d="M19 19v-6H5v6zm-.27-8.32 1.77-1.77-1.41-1.41-1.77 1.77zm-13.46 0 1.41-1.41L4.91 7.5 3.5 8.91zM13 8V5h-2v3z"/></svg>

<svg  viewBox="0 0 24 24" fill="currentColor"><path  d="M19 19V13H5V19H19M18.73 10.68L20.5 8.91L19.09 7.5L17.32 9.27L18.73 10.68M5.27 10.68L6.68 9.27L4.91 7.5L3.5 8.91L5.27 10.68M13 8V5H11V8H13Z"/></svg>
